X:1
T:The Grey Silkie of Sule Skerry
M:3/4
L:1/4
K:G
 A G E| D3| B, B, D| E3| A G E| D/2 D/2- D2|E/2-F/2 G A| B3| d d c|\
 B3| A3.99999962500005/11.9999985000002 A3.99999962500005/11.9999985000002 A3.99999962500005/11.9999985000002 G D|\
 E3| E A A| B B B| B/2A/2 G E| D3|
